assets/icons/qvision/work_outline.svg

<svg xmlns="http://www.w3.org/2000/svg" height="24" viewBox="0 0 24 24" width="24"><path d="M0 0h24v24H0z" fill="none"/><path d="M14 6V4h-4v2h4zM4 8v11h16V8H4zm16-2c1.11 0 2 .89 2 2v11c0 1.11-.89 2-2 2H4c-1.11 0-2-.89-2-2l.01-11c0-1.11.88-2 1.99-2h4V4c0-1.11.89-2 2-2h4c1.11 0 2 .89 2 2v2h4z" fill-rule="evenodd"/></svg>

<svg width="24" height="24" viewBox="0 0 24 24" fill="none" xmlns="http://www.w3.org/2000/svg">
<g clip-path="url(#clip0_147_5029)">
<path fill-rule="evenodd" clip-rule="evenodd" d="M14 6V4H10V6H14ZM4 8V19H20V8H4ZM20 6C21.11 6 22 6.89 22 8V19C22 20.11 21.11 21 20 21H4C2.89 21 2 20.11 2 19L2.01 8C2.01 6.89 2.89 6 4 6H8V4C8 2.89 8.89 2 10 2H14C15.11 2 16 2.89 16 4V6H20Z" fill="#323232"/>
</g>
<defs>
<clipPath id="clip0_147_5029">
<rect width="24" height="24" fill="white"/>
</clipPath>
</defs>
</svg>
